resources/svg/more-vertical.svg

<svg viewBox="0 0 24 24"><path d="M14 14h-4v-4h4v4zm0-7h-4V3h4v4zm0 14h-4v-4h4v4z" fill="currentColor"/></svg>

<svg xmlns="http://www.w3.org/2000/svg" viewBox="0 0 24 24" fill="currentColor"><path d="M14,14 L10,14 L10,10 L14,10 L14,14 Z M14,7 L10,7 L10,3 L14,3 L14,7 Z M14,21 L10,21 L10,17 L14,17 L14,21 Z"/></svg>
